core/assets/icons/balance_payment.svg

<svg width="24" height="24" viewBox="0 0 24 24" xmlns="http://www.w3.org/2000/svg"><g id="balance-payment"><path id="Vector" fill-rule="evenodd" clip-rule="evenodd" d="M3 1H21V20.618L18 22.118L16 21.118L14 22.118L12 21.118L10 22.118L8 21.118L6 22.118L3 20.618V1ZM5 3V19.382L6 19.882L8 18.882L10 19.882L12 18.882L14 19.882L16 18.882L18 19.882L19 19.382V3H5Z"/><path id="Vector_2" d="M13 6H7V8H13V6Z"/><path id="Vector_3" d="M13 10H7V12H13V10Z"/><path id="Vector_4" d="M11 14H7V16H11V14Z"/><path id="Vector_5" d="M17 6H15V8H17V6Z"/><path id="Vector_6" d="M17 10H15V12H17V10Z"/><path id="Vector_7" d="M17 14H15V16H17V14Z"/></g></svg>

<svg xmlns="http://www.w3.org/2000/svg" width="24" height="24" fill="none"><g fill="#191C22"><path fill-rule="evenodd" d="M3 1h18v19.618l-3 1.5-2-1-2 1-2-1-2 1-2-1-2 1-3-1.5V1Zm2 2v16.382l1 .5 2-1 2 1 2-1 2 1 2-1 2 1 1-.5V3H5Z" clip-rule="evenodd"/><path d="M13 6H7v2h6V6ZM13 10H7v2h6v-2ZM11 14H7v2h4v-2ZM17 6h-2v2h2V6ZM17 10h-2v2h2v-2ZM17 14h-2v2h2v-2Z"/></g></svg>
